!!!Genre:	Sher
!!!Mode:	Altered Dorian
!!!Listening/dance:	dance
!!!:	*G:
!!!One_Mode:	no
**kern
*I"P1
*clefG2
*k[b-]
*g:dor
*M2/4
*>A
8ddL
8ee
8ffJ
=1
4gg
4ff
=2
4ee
4dd
=3
(16cc#XLL
16ddJJ
4.b-)
=4
8r
8gL
8b-
8ddJ
=5
4gg
4ff
=6
4ee
4dd
=7
(16cc#XLL
16ddJJ
4.b-)
=8
8r
8gL
8a
8b-J
=9
4cc#X
16ddLL
16cc#J
[8b-J
=10
8b-L]
8aJ
16b-LL
16aJ
8gJ
=11
2aX
=12
8r
8dL
8f#X
8aJ
=13
8ddL
8ccnJ
16ccLL
16b-J
8aJ
=14
8b-L
8aJ
16b-LL
16aJ
8gJ
=15
2g
=16
2g
=17||
*>B
*k[f#]
*>bM
*G:
2b
=18
2cc
=19
(8bL
8aJ)
(16ccLL
16bJ
8aJ)
=20
(4.a
8g)
=21
2b
=22
2cc
=23
8bL
8aJ
16ccLL
16bJ
8aJ
=24
8ddL
8cc#XJ
8dd
8r
=25
2a
=26
2b
=27
8aL
8gJ
16bLL
16aJ
8gJ
=28
4.g
8r
=29
4f#
4g
*>eM
*g:dor
=30
4a
4b-X
=31
8a
[4.g
=32
4g]
4r
=33!|:
*>C
*k[b-]
8d
4.g
=34
(16aLL
16b-JJ)
4g
8g
=35
8f#XL
8g
8a
8b-J
=36
8a
4g
8g
=37
8f#XL
8gJ
8aL
8b-J
=38
8dd
4dd
8dd
=39
8cc#XL
8b-
8a
8gJ
=40
((8ddL
8cc#XJ)
8dd)
8r
=41:|!
8cc#XL
8ddJ
8aL
8b-J
=42
[2g
=43
8g]
==
*-
